src/assets/svg/ic_document_scenario.svg

<svg xmlns="http://www.w3.org/2000/svg" width="16" height="16">
    <path d="M7 0L2 5h5V0zm1 0v6H2v10h12V0H8zM4 9h5v1H4V9zm0 2h8v1H4v-1zm0 2h8v1H4v-1z"/>
</svg>

<svg id="icons" xmlns="http://www.w3.org/2000/svg" width="16" height="16" viewBox="0 0 16 16"><title>document_scenario</title><path
     d="M 7 0 L 2 5 L 7 5 L 7 0 z M 8 0 L 8 6 L 2 6 L 2 16 L 14 16 L 14 0 L 8 0 z M 4 9 L 9 9 L 9 10 L 4 10 L 4 9 z M 4 11 L 12 11 L 12 12 L 4 12 L 4 11 z M 4 13 L 12 13 L 12 14 L 4 14 L 4 13 z "
     id="path5" /></svg>
